X:319
T: WIE STEHT IHR HIER UND SEHT MICH AN
N: E0934
O: Europa, Mitteleuropa, Deutschland
R: Tanz - Lied, Reigen, geistlich
M: 4/4
L: 1/4
K: F
F | A2B2 | c3B | A2G2 | F3
F | A2B2 | c3B | A2G2 | F3
B | A2G2 | D2C2 | ABcB | G3
B | A2G2 | D2C2 | ABcB | G3

